;PYCAM-META-DATA: Filename: /home/zoro/x10i-interpreter2/sources/drawing1/circle.svg
;PYCAM-META-DATA: Timestamp: 2014-10-10 18:31:50.199493
;PYCAM-META-DATA: Version: 0.5.1
;Estimated machine time: 3 minutes
G40 (disable tool radius compensation)
G49 (disable tool length compensation)
G80 (cancel modal motion)
G54 (select coordinate system 1)
G90 (disable incremental moves)
G21 (metric)
G61 (exact path mode)
F200.00000
S1000.00000
;PYCAM_TOOLPATH_SETTINGS: START
;[Bounds]
;maxz = 0.0
;maxx = 134.90486
;maxy = 240.6997
;minx = 51.90254
;miny = 162.4153
;minz = 0.0
;
;[Tool]
;torus_radius = 0.25
;speed = 1000.0
;shape = SphericalCutter
;tool_radius = 0.3
;feedrate = 200.0
;
;[Process]
;engrave_offset = 0.0
;step_down = 1.0
;generator = EngraveCutter
;postprocessor = SimpleCutter
;overlap_percent = 0
;milling_style = conventional
;material_allowance = 0.0
;pocketing_type = none
;path_direction = x
;
;PYCAM_TOOLPATH_SETTINGS: END
T3 M6
G0 Z0.0000
M3 (start spindle)
G04 P3 (wait for 3 seconds)
 X96.4819 Y234.1750
G1 Z0.0000
 X97.4179 Y234.0860
 X98.3494 Y233.9720
 X99.2760 Y233.8350
 X100.1970 Y233.6750
 X101.1120 Y233.4900
 X102.0200 Y233.2830
 X102.9210 Y233.0540
 X103.8140 Y232.8010
 X104.6990 Y232.5280
 X105.5750 Y232.2320
 X106.4420 Y231.9140
 X107.2990 Y231.5760
 X108.1460 Y231.2170
 X108.9820 Y230.8360
 X109.8060 Y230.4350
 X110.6190 Y230.0150
 X111.4190 Y229.5740
 X112.2060 Y229.1140
 X112.9790 Y228.6350
 X113.7390 Y228.1360
 X114.4840 Y227.6190
 X115.2140 Y227.0830
 X115.9280 Y226.5290
 X116.6260 Y225.9580
 X117.3070 Y225.3690
 X117.9710 Y224.7630
 X118.6180 Y224.1390
 X119.2460 Y223.4990
 X119.8550 Y222.8430
 X120.4450 Y222.1690
 X121.0150 Y221.4810
 X121.5650 Y220.7760
 X122.4440 Y219.5640
 X123.2590 Y218.3240
 X124.0090 Y217.0610
 X124.6970 Y215.7780
 X125.3200 Y214.4740
 X125.8800 Y213.1530
 X126.3770 Y211.8150
 X126.8110 Y210.4650
 X127.1810 Y209.1030
 X127.4890 Y207.7310
 X127.7340 Y206.3510
 X127.9170 Y204.9650
 X128.0360 Y203.5760
 X128.0940 Y202.1850
 X128.0890 Y200.7930
 X128.0230 Y199.4040
 X127.8940 Y198.0190
 X127.7040 Y196.6400
 X127.4520 Y195.2690
 X127.1380 Y193.9080
 X126.7640 Y192.5600
 X126.3280 Y191.2240
 X125.8300 Y189.9060
 X125.2720 Y188.6040
 X124.6530 Y187.3220
 X123.9740 Y186.0630
 X123.2340 Y184.8260
 X122.4340 Y183.6150
 X121.5730 Y182.4330
 X120.6520 Y181.2810
 X119.6720 Y180.1580
 X118.6310 Y179.0710
 X117.7430 Y178.2150
 X116.8250 Y177.3960
 X115.8780 Y176.6110
 X114.9050 Y175.8620
 X113.9050 Y175.1490
 X112.8810 Y174.4740
 X111.8340 Y173.8330
 X110.7650 Y173.2310
 X109.6760 Y172.6650
 X108.5670 Y172.1390
 X107.4410 Y171.6490
 X106.2980 Y171.1970
 X105.1400 Y170.7850
 X103.9680 Y170.4110
 X102.7840 Y170.0760
 X101.5880 Y169.7820
 X100.3830 Y169.5260
 X99.1697 Y169.3110
 X97.9490 Y169.1360
 X96.7226 Y169.0010
 X95.4917 Y168.9080
 X94.2576 Y168.8570
 X93.0219 Y168.8460
 X91.7857 Y168.8780
 X90.5506 Y168.9510
 X89.3175 Y169.0680
 X88.0881 Y169.2260
 X86.8636 Y169.4290
 X85.6453 Y169.6750
 X84.4347 Y169.9640
 X83.2331 Y170.2970
 X82.0417 Y170.6750
 X81.0615 Y171.0180
 X80.1001 Y171.3810
 X79.1575 Y171.7640
 X78.2336 Y172.1670
 X77.3289 Y172.5900
 X76.4431 Y173.0350
 X75.5765 Y173.4970
 X74.7293 Y173.9810
 X73.9015 Y174.4830
 X73.0933 Y175.0040
 X72.3047 Y175.5460
 X71.5360 Y176.1070
 X70.7871 Y176.6860
 X70.0582 Y177.2860
 X69.3494 Y177.9030
 X68.6610 Y178.5400
 X67.9928 Y179.1940
 X67.3451 Y179.8690
 X66.7181 Y180.5610
 X66.1115 Y181.2720
 X65.5260 Y182.0000
 X64.9612 Y182.7470
 X64.4176 Y183.5130
 X63.8951 Y184.2940
 X63.3939 Y185.0960
 X62.9140 Y185.9140
 X62.4557 Y186.7490
 X62.0190 Y187.6030
 X61.6039 Y188.4720
 X61.2108 Y189.3600
 X60.8396 Y190.2650
 X60.4904 Y191.1860
 X60.1256 Y192.2530
 X59.8024 Y193.3280
 X59.5206 Y194.4080
 X59.2799 Y195.4970
 X59.0801 Y196.5900
 X58.9210 Y197.6860
 X58.8024 Y198.7860
 X58.7237 Y199.8890
 X58.6851 Y200.9920
 X58.6863 Y202.0940
 X58.7268 Y203.1960
 X58.8065 Y204.2960
 X58.9251 Y205.3920
 X59.0824 Y206.4830
 X59.2782 Y207.5690
 X59.5122 Y208.6500
 X59.7840 Y209.7220
 X60.0938 Y210.7880
 X60.4407 Y211.8420
 X60.8251 Y212.8860
 X61.2464 Y213.9180
 X61.7043 Y214.9390
 X62.1989 Y215.9460
 X62.7296 Y216.9380
 X63.2963 Y217.9130
 X63.8987 Y218.8720
 X64.5367 Y219.8140
 X65.2099 Y220.7360
 X65.9181 Y221.6390
 X66.6610 Y222.5210
 X67.4385 Y223.3810
 X68.2501 Y224.2180
 X68.9303 Y224.8740
 X69.6297 Y225.5100
 X70.3481 Y226.1250
 X71.0844 Y226.7190
 X71.8383 Y227.2940
 X72.6092 Y227.8490
 X73.3961 Y228.3810
 X74.1986 Y228.8920
 X75.0161 Y229.3820
 X75.8479 Y229.8500
 X76.6933 Y230.2960
 X77.5518 Y230.7190
 X78.4228 Y231.1210
 X79.3054 Y231.5000
 X80.1992 Y231.8560
 X81.1036 Y232.1880
 X82.0178 Y232.4970
 X82.9411 Y232.7820
 X83.8731 Y233.0440
 X84.8131 Y233.2820
 X85.7603 Y233.4960
 X86.7143 Y233.6850
 X87.6743 Y233.8490
 X88.6397 Y233.9870
 X89.6099 Y234.1010
 X90.5843 Y234.1900
 X91.5621 Y234.2530
 X92.5429 Y234.2900
 X93.5258 Y234.3010
 X94.5104 Y234.2860
 X95.4960 Y234.2440
 X96.4819 Y234.1750
G0 Z0.0000
 X90.0424 Y234.2900
G1 Z0.0000
 X89.2815 Y234.2170
 X88.5214 Y234.1260
 X87.7622 Y234.0180
 X87.0044 Y233.8930
 X86.2486 Y233.7510
 X85.4950 Y233.5930
 X84.7443 Y233.4180
 X83.9967 Y233.2260
 X83.2528 Y233.0180
 X82.5131 Y232.7960
 X81.7778 Y232.5570
 X81.0476 Y232.3010
 X80.3229 Y232.0320
 X79.6040 Y231.7470
 X78.8915 Y231.4490
 X78.1858 Y231.1330
 X77.4875 Y230.8060
 X76.7968 Y230.4630
 X76.1142 Y230.1060
 X75.4403 Y229.7350
 X74.7753 Y229.3500
 X74.1199 Y228.9530
 X73.4744 Y228.5420
 X72.8393 Y228.1180
 X72.2151 Y227.6810
 X71.6022 Y227.2320
 X71.0010 Y226.7690
 X70.4119 Y226.2960
 X69.8356 Y225.8100
 X69.2722 Y225.3130
 X68.7225 Y224.8030
 X68.1867 Y224.2830
 X67.1265 Y223.1810
 X66.1276 Y222.0460
 X65.1900 Y220.8790
 X64.3137 Y219.6860
 X63.4990 Y218.4650
 X62.7460 Y217.2190
 X62.0549 Y215.9510
 X61.4256 Y214.6610
 X60.8585 Y213.3530
 X60.3535 Y212.0260
 X59.9108 Y210.6830
 X59.5307 Y209.3280
 X59.2132 Y207.9600
 X58.9585 Y206.5830
 X58.7665 Y205.1970
 X58.6376 Y203.8060
 X58.5719 Y202.4080
 X58.5694 Y201.0100
 X58.6304 Y199.6100
 X58.7549 Y198.2110
 X58.9429 Y196.8150
 X59.1950 Y195.4250
 X59.5108 Y194.0400
 X59.8908 Y192.6650
 X60.3350 Y191.3000
 X60.8435 Y189.9470
 X61.4164 Y188.6100
 X62.0540 Y187.2880
 X62.7563 Y185.9820
 X63.5235 Y184.6970
 X64.3556 Y183.4350
 X65.2529 Y182.1940
 X65.8962 Y181.3760
 X66.5706 Y180.5780
 X67.2749 Y179.8010
 X68.0078 Y179.0460
 X68.7683 Y178.3140
 X69.5554 Y177.6030
 X70.3678 Y176.9170
 X71.2043 Y176.2530
 X72.0639 Y175.6140
 X72.9454 Y175.0000
 X73.8476 Y174.4110
 X74.7696 Y173.8490
 X75.7100 Y173.3110
 X76.6678 Y172.8010
 X77.6417 Y172.3180
 X78.6308 Y171.8620
 X79.6339 Y171.4360
 X80.6497 Y171.0380
 X81.6774 Y170.6690
 X82.7154 Y170.3310
 X83.7629 Y170.0210
 X84.8186 Y169.7430
 X85.8815 Y169.4970
 X86.9504 Y169.2820
 X88.0242 Y169.1000
 X89.1017 Y168.9500
 X90.1817 Y168.8330
 X91.2632 Y168.7510
 X92.3450 Y168.7030
 X93.4260 Y168.6890
 X94.5049 Y168.7110
 X95.5808 Y168.7690
 X96.7825 Y168.8740
 X97.9726 Y169.0130
 X99.1503 Y169.1860
 X100.3150 Y169.3940
 X101.4660 Y169.6380
 X102.6030 Y169.9140
 X103.7240 Y170.2240
 X104.8300 Y170.5650
 X105.9190 Y170.9400
 X106.9910 Y171.3470
 X108.0460 Y171.7850
 X109.0820 Y172.2530
 X110.0980 Y172.7530
 X111.0950 Y173.2820
 X112.0710 Y173.8420
 X113.0250 Y174.4290
 X113.9580 Y175.0470
 X114.8680 Y175.6920
 X115.7550 Y176.3650
 X116.6180 Y177.0670
 X117.4550 Y177.7940
 X118.2680 Y178.5490
 X119.0540 Y179.3280
 X119.8130 Y180.1350
 X120.5450 Y180.9650
 X121.2490 Y181.8210
 X121.9240 Y182.7010
 X122.5690 Y183.6060
 X123.1840 Y184.5330
 X123.7680 Y185.4830
 X124.3210 Y186.4570
 X124.8410 Y187.4510
 X125.3370 Y188.4870
 X125.7930 Y189.5320
 X126.2100 Y190.5830
 X126.5880 Y191.6430
 X126.9270 Y192.7080
 X127.2270 Y193.7790
 X127.4880 Y194.8560
 X127.7100 Y195.9350
 X127.8930 Y197.0180
 X128.0370 Y198.1030
 X128.1420 Y199.1890
 X128.2090 Y200.2760
 X128.2380 Y201.3640
 X128.2280 Y202.4500
 X128.1790 Y203.5350
 X128.0920 Y204.6180
 X127.9670 Y205.6970
 X127.8040 Y206.7720
 X127.6030 Y207.8420
 X127.3630 Y208.9070
 X127.0860 Y209.9650
 X126.7710 Y211.0150
 X126.4180 Y212.0580
 X126.0270 Y213.0930
 X125.5980 Y214.1180
 X125.1330 Y215.1320
 X124.6290 Y216.1350
 X124.0880 Y217.1260
 X123.5100 Y218.1040
 X122.8940 Y219.0690
 X122.2410 Y220.0190
 X121.5510 Y220.9540
 X120.8730 Y221.8140
 X120.1660 Y222.6490
 X119.4310 Y223.4570
 X118.6700 Y224.2400
 X117.8840 Y224.9970
 X117.0720 Y225.7280
 X116.2370 Y226.4320
 X115.3780 Y227.1080
 X114.4980 Y227.7580
 X113.5950 Y228.3790
 X112.6720 Y228.9720
 X111.7300 Y229.5370
 X110.7680 Y230.0740
 X109.7880 Y230.5790
 X108.7920 Y231.0570
 X107.7790 Y231.5040
 X106.7500 Y231.9210
 X105.7070 Y232.3070
 X104.6500 Y232.6610
 X103.5800 Y232.9850
 X102.4980 Y233.2760
 X101.4050 Y233.5360
 X100.3010 Y233.7640
 X99.1881 Y233.9580
 X98.0663 Y234.1190
 X96.9367 Y234.2470
 X95.8001 Y234.3420
 X94.6574 Y234.4010
 X93.5093 Y234.4260
 X92.3569 Y234.4170
 X91.2010 Y234.3710
 X90.0424 Y234.2900
G0 Z0.0000
M5 (stop spindle)
G04 P3 (wait for 3 seconds)
G0 Z0.0000
M2 (end program)
