;PYCAM-META-DATA: Filename: /home/zoro/ink-drawing/circle.svg
;PYCAM-META-DATA: Timestamp: 2014-10-14 13:28:40.502627
;PYCAM-META-DATA: Version: 0.5.1
;Estimated machine time: 1 minutes
G40 (disable tool radius compensation)
G49 (disable tool length compensation)
G80 (cancel modal motion)
G54 (select coordinate system 1)
G90 (disable incremental moves)
G21 (metric)
G61 (exact path mode)
F200.00000
S1000.00000
;PYCAM_TOOLPATH_SETTINGS: START
;[Bounds]
;maxz = 0.0
;maxx = 138.51612
;maxy = 183.2847
;minx = 67.91068
;miny = 119.4523
;minz = 0.0
;
;[Tool]
;torus_radius = 0.25
;speed = 1000.0
;shape = SphericalCutter
;tool_radius = 0.5
;feedrate = 200.0
;
;[Process]
;engrave_offset = 0.0
;step_down = 1.0
;generator = EngraveCutter
;postprocessor = SimpleCutter
;overlap_percent = 0
;milling_style = conventional
;material_allowance = 0.0
;pocketing_type = none
;path_direction = x
;
;PYCAM_TOOLPATH_SETTINGS: END
T3 M6
G0 Z0.0000
M3 (start spindle)
G04 P3 (wait for 3 seconds)
 X103.2140 Y178.3820
G1 Z10.0000
 X102.4430 Y178.3740
 X101.6780 Y178.3470
 X100.9180 Y178.3030
 X100.1630 Y178.2430
 X99.4138 Y178.1650
 X98.6700 Y178.0710
 X97.9324 Y177.9600
 X97.2008 Y177.8330
 X96.4757 Y177.6900
 X95.7574 Y177.5320
 X95.0458 Y177.3570
 X94.3415 Y177.1680
 X93.6446 Y176.9620
 X92.9553 Y176.7430
 X92.2738 Y176.5080
 X91.6004 Y176.2600
 X90.9353 Y175.9960
 X90.2787 Y175.7180
 X89.6311 Y175.4260
 X88.9924 Y175.1220
 X88.3629 Y174.8030
 X87.7429 Y174.4710
 X87.1326 Y174.1260
 X86.5324 Y173.7680
 X85.9422 Y173.3990
 X85.3626 Y173.0150
 X84.7936 Y172.6210
 X84.2356 Y172.2140
 X83.6885 Y171.7940
 X83.1529 Y171.3640
 X82.6289 Y170.9220
 X82.1167 Y170.4690
 X81.6165 Y170.0060
 X81.1288 Y169.5320
 X80.6535 Y169.0470
 X80.1910 Y168.5510
 X79.7415 Y168.0460
 X79.3053 Y167.5310
 X78.8825 Y167.0060
 X78.4735 Y166.4720
 X78.0783 Y165.9280
 X77.6974 Y165.3760
 X77.3308 Y164.8140
 X76.9789 Y164.2440
 X76.6418 Y163.6670
 X76.3200 Y163.0790
 X76.0135 Y162.4850
 X75.7225 Y161.8830
 X75.4474 Y161.2740
 X75.1882 Y160.6570
 X74.9454 Y160.0320
 X74.7192 Y159.4010
 X74.5097 Y158.7640
 X74.3171 Y158.1190
 X74.1418 Y157.4690
 X73.9839 Y156.8130
 X73.8438 Y156.1500
 X73.7215 Y155.4820
 X73.6175 Y154.8080
 X73.5318 Y154.1310
 X73.4647 Y153.4470
 X73.4165 Y152.7580
 X73.3875 Y152.0650
 X73.3778 Y151.3680
 X73.3875 Y150.6710
 X73.4165 Y149.9780
 X73.4647 Y149.2900
 X73.5318 Y148.6070
 X73.6175 Y147.9280
 X73.7215 Y147.2540
 X73.8438 Y146.5860
 X73.9839 Y145.9250
 X74.1418 Y145.2680
 X74.3171 Y144.6180
 X74.5097 Y143.9740
 X74.7192 Y143.3360
 X74.9454 Y142.7040
 X75.1882 Y142.0810
 X75.4474 Y141.4640
 X75.7225 Y140.8540
 X76.0135 Y140.2510
 X76.3200 Y139.6570
 X76.6418 Y139.0710
 X76.9789 Y138.4930
 X77.3308 Y137.9230
 X77.6974 Y137.3610
 X78.0783 Y136.8090
 X78.4735 Y136.2650
 X78.8825 Y135.7310
 X79.3053 Y135.2060
 X79.7415 Y134.6910
 X80.1910 Y134.1860
 X80.6535 Y133.6900
 X81.1288 Y133.2050
 X81.6165 Y132.7310
 X82.1167 Y132.2670
 X82.6289 Y131.8140
 X83.1529 Y131.3730
 X83.6885 Y130.9430
 X84.2356 Y130.5240
 X84.7936 Y130.1170
 X85.3626 Y129.7220
 X85.9422 Y129.3390
 X86.5324 Y128.9680
 X87.1326 Y128.6110
 X87.7429 Y128.2660
 X88.3629 Y127.9340
 X88.9924 Y127.6150
 X89.6311 Y127.3100
 X90.2787 Y127.0190
 X90.9353 Y126.7410
 X91.6004 Y126.4780
 X92.2738 Y126.2290
 X92.9553 Y125.9940
 X93.6446 Y125.7740
 X94.3415 Y125.5690
 X95.0458 Y125.3800
 X95.7574 Y125.2050
 X96.4757 Y125.0470
 X97.2008 Y124.9040
 X97.9324 Y124.7770
 X98.6700 Y124.6660
 X99.4138 Y124.5720
 X100.1630 Y124.4940
 X100.9180 Y124.4340
 X101.6780 Y124.3900
 X102.4430 Y124.3640
 X103.2140 Y124.3550
 X103.9840 Y124.3640
 X104.7490 Y124.3900
 X105.5090 Y124.4340
 X106.2640 Y124.4940
 X107.0130 Y124.5720
 X107.7570 Y124.6660
 X108.4950 Y124.7770
 X109.2260 Y124.9040
 X109.9510 Y125.0470
 X110.6700 Y125.2050
 X111.3810 Y125.3800
 X112.0860 Y125.5690
 X112.7820 Y125.7740
 X113.4720 Y125.9940
 X114.1530 Y126.2290
 X114.8270 Y126.4780
 X115.4920 Y126.7410
 X116.1480 Y127.0190
 X116.7960 Y127.3100
 X117.4350 Y127.6150
 X118.0640 Y127.9340
 X118.6840 Y128.2660
 X119.2940 Y128.6110
 X119.8950 Y128.9680
 X120.4850 Y129.3390
 X121.0650 Y129.7220
 X121.6330 Y130.1170
 X122.1920 Y130.5240
 X122.7390 Y130.9430
 X123.2740 Y131.3730
 X123.7980 Y131.8140
 X124.3100 Y132.2670
 X124.8110 Y132.7310
 X125.2980 Y133.2050
 X125.7740 Y133.6900
 X126.2360 Y134.1860
 X126.6860 Y134.6910
 X127.1220 Y135.2060
 X127.5450 Y135.7310
 X127.9540 Y136.2650
 X128.3490 Y136.8090
 X128.7300 Y137.3610
 X129.0960 Y137.9230
 X129.4480 Y138.4930
 X129.7850 Y139.0710
 X130.1070 Y139.6570
 X130.4140 Y140.2510
 X130.7050 Y140.8540
 X130.9800 Y141.4640
 X131.2390 Y142.0810
 X131.4820 Y142.7040
 X131.7080 Y143.3360
 X131.9170 Y143.9740
 X132.1100 Y144.6180
 X132.2850 Y145.2680
 X132.4430 Y145.9250
 X132.5830 Y146.5860
 X132.7060 Y147.2540
 X132.8100 Y147.9280
 X132.8950 Y148.6070
 X132.9620 Y149.2900
 X133.0110 Y149.9780
 X133.0400 Y150.6710
 X133.0490 Y151.3680
 X133.0400 Y152.0650
 X133.0110 Y152.7580
 X132.9620 Y153.4470
 X132.8950 Y154.1310
 X132.8100 Y154.8080
 X132.7060 Y155.4820
 X132.5830 Y156.1500
 X132.4430 Y156.8130
 X132.2850 Y157.4690
 X132.1100 Y158.1190
 X131.9170 Y158.7640
 X131.7080 Y159.4010
 X131.4820 Y160.0320
 X131.2390 Y160.6570
 X130.9800 Y161.2740
 X130.7050 Y161.8830
 X130.4140 Y162.4850
 X130.1070 Y163.0790
 X129.7850 Y163.6670
 X129.4480 Y164.2440
 X129.0960 Y164.8140
 X128.7300 Y165.3760
 X128.3490 Y165.9280
 X127.9540 Y166.4720
 X127.5450 Y167.0060
 X127.1220 Y167.5310
 X126.6860 Y168.0460
 X126.2360 Y168.5510
 X125.7740 Y169.0470
 X125.2980 Y169.5320
 X124.8110 Y170.0060
 X124.3100 Y170.4690
 X123.7980 Y170.9220
 X123.2740 Y171.3640
 X122.7390 Y171.7940
 X122.1920 Y172.2140
 X121.6330 Y172.6210
 X121.0650 Y173.0150
 X120.4850 Y173.3990
 X119.8950 Y173.7680
 X119.2940 Y174.1260
 X118.6840 Y174.4710
 X118.0640 Y174.8030
 X117.4350 Y175.1220
 X116.7960 Y175.4260
 X116.1480 Y175.7180
 X115.4920 Y175.9960
 X114.8270 Y176.2600
 X114.1530 Y176.5080
 X113.4720 Y176.7430
 X112.7820 Y176.9620
 X112.0860 Y177.1680
 X111.3810 Y177.3570
 X110.6700 Y177.5320
 X109.9510 Y177.6900
 X109.2260 Y177.8330
 X108.4950 Y177.9600
 X107.7570 Y178.0710
 X107.0130 Y178.1650
 X106.2640 Y178.2430
 X105.5090 Y178.3030
 X104.7490 Y178.3470
 X103.9840 Y178.3740
 X103.2140 Y178.3820
G0 Z0.0000
M5 (stop spindle)
G04 P3 (wait for 3 seconds)
G0 Z0.0000
M2 (end program)
