;PYCAM-META-DATA: Filename: None
;PYCAM-META-DATA: Timestamp: 2011-11-25 19:02:34.573908
;PYCAM-META-DATA: Version: 0.5.1
;Estimated machine time: 36 minutes
G40 (disable tool radius compensation)
G49 (disable tool length compensation)
G80 (cancel modal motion)
G54 (select coordinate system 1)
G90 (disable incremental moves)
G21 (metric)
G61 (exact path mode)
F200.00000
S1000.00000
;PYCAM_TOOLPATH_SETTINGS: START
;[Bounds]
;maxz = 0.0
;maxx = 497.38505
;maxy = 216.060492
;minx = -481.06095
;miny = -208.960148
;minz = 0.0
;
;[Tool]
;torus_radius = 0.25
;speed = 1000.0
;shape = SphericalCutter
;tool_radius = 0.5
;feedrate = 200.0
;
;[Process]
;engrave_offset = 0.0
;step_down = 1.0
;generator = EngraveCutter
;postprocessor = SimpleCutter
;overlap_percent = 0
;milling_style = conventional
;material_allowance = 0.0
;pocketing_type = none
;path_direction = x
;
;PYCAM_TOOLPATH_SETTINGS: END
T3 M6
G0 Z25.0000
M3 (start spindle)
G04 P3 (wait for 3 seconds)
 X339.7646 Y-136.4444
G1 Z0.0000
 X344.8646 Y-136.1494
 X349.7246 Y-135.2643
 X354.3296 Y-133.7892
 X358.7396 Y-131.7241
 X362.9046 Y-129.0689
 X366.8646 Y-125.8237
 X370.5596 Y-121.9884
 X374.0496 Y-117.5631
 X377.2196 Y-112.4042
 X379.9696 Y-106.3679
 X382.2746 Y-99.4544
 X384.2096 Y-91.6635
 X385.6946 Y-82.9954
 X386.7346 Y-73.4499
 X387.3795 Y-63.0272
 X387.5746 Y-51.7272
 Y179.8166
 X416.2645
 Y-51.7272
 X415.9196 Y-68.3415
 X414.8745 Y-83.5272
 X413.1946 Y-97.2844
 X410.8146 Y-109.6131
 X407.7395 Y-120.5134
 X404.0246 Y-129.9850
 X399.6146 Y-138.0282
 X394.5146 Y-144.6428
 X388.9146 Y-150.1745
 X382.9446 Y-154.9685
 X376.6245 Y-159.0250
 X369.9646 Y-162.3440
 X362.9496 Y-164.9254
 X355.5696 Y-166.7692
 X347.8396 Y-167.8756
 X339.7646 Y-168.2444
 X331.6896 Y-167.8756
 X323.9596 Y-166.7692
 X316.5746 Y-164.9254
 X309.5896 Y-162.3440
 X302.8996 Y-159.0250
 X296.6096 Y-154.9685
 X290.6146 Y-150.1745
 X285.0146 Y-144.6428
 X279.9096 Y-138.0282
 X275.5246 Y-129.9850
 X271.7846 Y-120.5134
 X268.7146 Y-109.6131
 X266.3346 Y-97.2844
 X264.6496 Y-83.5272
 X263.6346 Y-68.3415
 X263.3146 Y-51.7272
 Y179.8166
 X291.9746
 Y-51.7272
 X292.1996 Y-63.0272
 X292.8446 Y-73.4499
 X293.8846 Y-82.9954
 X295.3696 Y-91.6635
 X297.2546 Y-99.4544
 X299.5796 Y-106.3679
 X302.3046 Y-112.4042
 X305.4796 Y-117.5631
 X308.9946 Y-121.9884
 X312.7096 Y-125.8237
 X316.6496 Y-129.0689
 X320.8096 Y-131.7241
 X325.1946 Y-133.7892
 X329.8546 Y-135.2643
 X334.7096 Y-136.1494
 X339.7646 Y-136.4444
G0 Z25.0000
 X-39.6404 Y-173.9584
G1 Z0.0000
 X-68.3304
 Y181.0588
 X-27.5504
 X20.7096 Y-72.3475
 X24.2996
 X72.5346 Y181.0588
 X113.3096
 Y-173.9584
 X84.6496
 Y88.8884
 X82.6896
 X35.0496 Y-172.4678
 X9.9546
 X-37.6854 Y88.8884
 X-39.6404
 Y-173.9584
G0 Z25.0000
 X-371.2504
G1 Z0.0000
 X-399.9404
 Y181.0588
 X-359.1604
 X-310.9004 Y-72.3475
 X-307.3104
 X-259.0754 Y181.0588
 X-218.3004
 Y-173.9584
 X-246.9604
 Y88.8884
 X-248.9204
 X-296.5604 Y-172.4678
 X-321.6554
 X-369.2954 Y88.8884
 X-371.2504
 Y-173.9584
G0 Z25.0000
M5 (stop spindle)
G04 P3 (wait for 3 seconds)
G0 Z25.0000
M2 (end program)
