;PYCAM-META-DATA: Filename: /home/zoro/x10i-interpreter2/wry3/saleh.svg
;PYCAM-META-DATA: Timestamp: 2014-10-10 14:46:01.544343
;PYCAM-META-DATA: Version: 0.5.1
;Estimated machine time: 7 minutes
G40 (disable tool radius compensation)
G49 (disable tool length compensation)
G80 (cancel modal motion)
G54 (select coordinate system 1)
G90 (disable incremental moves)
G21 (metric)
G61 (exact path mode)
F200.00000
S1000.00000
;PYCAM_TOOLPATH_SETTINGS: START
;[Bounds]
;maxz = 0.0
;maxx = 192.46355
;maxy = 248.6841
;minx = 8.48895
;miny = 209.9389
;minz = 0.0
;
;[Tool]
;torus_radius = 0.25
;speed = 1000.0
;shape = SphericalCutter
;tool_radius = 0.5
;feedrate = 200.0
;
;[Process]
;engrave_offset = 0.0
;step_down = 1.0
;generator = EngraveCutter
;postprocessor = SimpleCutter
;overlap_percent = 0
;milling_style = conventional
;material_allowance = 0.0
;pocketing_type = none
;path_direction = x
;
;PYCAM_TOOLPATH_SETTINGS: END
T3 M6
G0 Z25.0000
M3 (start spindle)
G04 P3 (wait for 3 seconds)
 X66.7508 Y234.2780
G1 Z0.0000
 X67.0285 Y233.5170
 X67.2981 Y232.7780
 X67.5585 Y232.0630
 X67.8082 Y231.3750
 X68.0458 Y230.7210
 X68.2700 Y230.1030
 X68.4793 Y229.5240
 X68.6725 Y228.9890
 X68.8481 Y228.5030
 X69.0047 Y228.0670
 X69.1411 Y227.6880
 X69.2557 Y227.3670
 X69.3472 Y227.1110
 X69.4144 Y226.9210
 X69.4556 Y226.8030
 X69.4697 Y226.7580
 X69.4407 Y226.7510
 X69.3557 Y226.7440
 X69.2174 Y226.7390
 X69.0287 Y226.7330
 X68.7926 Y226.7280
 X68.5118 Y226.7220
 X68.1893 Y226.7170
 X67.8279 Y226.7120
 X67.4306 Y226.7080
 X66.9999 Y226.7060
 X66.5390 Y226.7030
 X66.0507 Y226.7000
 X65.5378 Y226.6990
 X65.0032 Y226.6970
 X64.4497 Y226.6960
 X63.3111
 X62.7579 Y226.6970
 X62.2235 Y226.6990
 X61.7107 Y226.7000
 X61.2225 Y226.7030
 X60.7617 Y226.7040
 X60.3313 Y226.7080
 X59.9339 Y226.7110
 X59.5725 Y226.7150
 X59.2501 Y226.7180
 X58.9693 Y226.7220
 X58.7333 Y226.7260
 X58.5446 Y226.7320
 X58.4064 Y226.7360
 X58.3212 Y226.7400
 X58.2924 Y226.7440
 X58.3051 Y226.7890
 X58.3431 Y226.9010
 X58.4044 Y227.0820
 X58.4883 Y227.3240
 X58.5933 Y227.6260
 X58.7182 Y227.9830
 X58.8618 Y228.3930
 X59.0226 Y228.8510
 X59.1996 Y229.3540
 X59.3914 Y229.8990
 X59.5967 Y230.4810
 X59.8143 Y231.0960
 X60.0429 Y231.7430
 X60.2814 Y232.4170
 X60.5283 Y233.1150
 X60.7825 Y233.8320
 X61.0378 Y234.5510
 X61.2883 Y235.2580
 X61.7701 Y236.6180
 X61.9986 Y237.2640
 X62.2168 Y237.8810
 X62.4236 Y238.4650
 X62.6174 Y239.0140
 X62.7969 Y239.5220
 X62.9608 Y239.9850
 X63.1078 Y240.4000
 X63.2362 Y240.7610
 X63.3449 Y241.0670
 X63.4324 Y241.3130
 X63.4974 Y241.4930
 X63.5385 Y241.6040
 X63.6193 Y241.8360
 X63.6833 Y242.0100
 X63.7340 Y242.1290
 X63.7747 Y242.1990
 X63.8088 Y242.2210
 X63.8397 Y242.2010
 X63.8713 Y242.1430
 X63.9064 Y242.0500
 X63.9324 Y241.9810
 X63.9854 Y241.8380
 X64.0640 Y241.6240
 X64.1669 Y241.3440
 X64.2925 Y241.0030
 X64.4393 Y240.6030
 X64.6058 Y240.1490
 X64.7907 Y239.6440
 X64.9924 Y239.0940
 X65.2093 Y238.5010
 X65.4401 Y237.8710
 X65.6833 Y237.2040
 X65.9375 Y236.5080
 X66.2011 Y235.7860
 X66.4728 Y235.0420
 X66.7508 Y234.2780
G0 Z25.0000
 X31.9154 Y245.7320
G1 Z0.0000
 X31.1556 Y245.6240
 X30.4244 Y245.4810
 X29.7229 Y245.3040
 X29.0522 Y245.0940
 X28.4132 Y244.8510
 X27.8069 Y244.5760
 X27.2346 Y244.2710
 X26.6969 Y243.9350
 X26.1953 Y243.5690
 X25.7304 Y243.1740
 X25.3036 Y242.7500
 X24.9157 Y242.3000
 X24.5678 Y241.8220
 X24.2607 Y241.3180
 X23.9958 Y240.7870
 X23.7740 Y240.2330
 X23.6686 Y239.8970
 X23.5811 Y239.5370
 X23.5110 Y239.1570
 X23.4583 Y238.7600
 X23.4231 Y238.3500
 X23.4047 Y237.9290
 X23.4035 Y237.5010
 X23.4189 Y237.0710
 X23.4511 Y236.6390
 X23.4997 Y236.2100
 X23.5646 Y235.7860
 X23.6458 Y235.3720
 X23.7431 Y234.9690
 X23.8561 Y234.5830
 X23.9849 Y234.2170
 X24.1293 Y233.8710
 X24.2411 Y233.6330
 X24.3581 Y233.4040
 X24.4804 Y233.1810
 X24.6089 Y232.9640
 X24.7438 Y232.7530
 X24.8858 Y232.5470
 X25.0354 Y232.3470
 X25.1932 Y232.1530
 X25.3594 Y231.9610
 X25.5350 Y231.7750
 X25.7203 Y231.5930
 X25.9156 Y231.4140
 X26.1217 Y231.2370
 X26.3390 Y231.0650
 X26.5681 Y230.8940
 X26.8094 Y230.7260
 X27.0636 Y230.5580
 X27.3310 Y230.3930
 X27.6124 Y230.2290
 X27.9081 Y230.0650
 X28.2185 Y229.9030
 X28.5444 Y229.7390
 X28.8864 Y229.5750
 X29.2447 Y229.4110
 X29.6200 Y229.2460
 X30.0126 Y229.0790
 X30.4235 Y228.9100
 X30.8528 Y228.7390
 X31.3011 Y228.5670
 X31.7690 Y228.3900
 X32.2569 Y228.2110
 X32.7656 Y228.0280
 X33.2929 Y227.8390
 X33.7963 Y227.6530
 X34.2762 Y227.4690
 X34.7333 Y227.2900
 X35.1682 Y227.1120
 X35.5811 Y226.9360
 X35.9728 Y226.7630
 X36.3436 Y226.5900
 X36.6942 Y226.4180
 X37.0250 Y226.2460
 X37.3365 Y226.0740
 X37.6294 Y225.9000
 X37.9040 Y225.7260
 X38.1610 Y225.5510
 X38.4007 Y225.3740
 X38.6237 Y225.1930
 X38.8307 Y225.0110
 X39.0219 Y224.8260
 X39.1982 Y224.6360
 X39.3597 Y224.4430
 X39.5072 Y224.2460
 X39.6411 Y224.0430
 X39.7619 Y223.8350
 X39.8703 Y223.6210
 X39.9665 Y223.4010
 X40.0514 Y223.1750
 X40.1253 Y222.9420
 X40.1885 Y222.7000
 X40.2419 Y222.4510
 X40.2858 Y222.1940
 X40.3210 Y221.9290
 X40.3475 Y221.6530
 X40.3714 Y221.0250
 X40.3479 Y220.4180
 X40.2779 Y219.8320
 X40.1625 Y219.2710
 X40.0025 Y218.7330
 X39.7988 Y218.2220
 X39.5522 Y217.7400
 X39.2639 Y217.2860
 X38.9346 Y216.8620
 X38.5653 Y216.4710
 X38.1568 Y216.1140
 X37.7103 Y215.7900
 X37.2264 Y215.5030
 X36.7061 Y215.2530
 X36.1506 Y215.0430
 X35.5603 Y214.8720
 X35.0294 Y214.7630
 X34.4651 Y214.6930
 X33.8735 Y214.6600
 X33.2607 Y214.6610
 X32.6326 Y214.6970
 X31.9957 Y214.7670
 X31.3560 Y214.8680
 X30.7194 Y214.9990
 X30.0922 Y215.1580
 X29.4807 Y215.3440
 X28.8906 Y215.5570
 X28.3283 Y215.7930
 X27.8000 Y216.0530
 X27.3115 Y216.3330
 X26.8693 Y216.6350
 X26.4792 Y216.9540
 X25.8699 Y217.5000
 X25.4511 Y219.6470
 X25.3674 Y220.0830
 X25.2889 Y220.4940
 X25.2172 Y220.8690
 X25.1542 Y221.2000
 X25.1013 Y221.4790
 X25.0601 Y221.6940
 X25.0324 Y221.8400
 X25.0197 Y221.9070
 X25.0042 Y221.9250
 X24.9594 Y221.9420
 X24.8890 Y221.9580
 X24.7957 Y221.9710
 X24.6828 Y221.9820
 X24.5533 Y221.9900
 X24.4107 Y221.9940
 X24.2576 Y221.9960
 X23.4957
 Y214.4260
 X24.5499 Y214.0830
 X25.4446 Y213.8140
 X26.3513 Y213.5780
 X27.2749 Y213.3720
 X28.2199 Y213.1960
 X29.1910 Y213.0500
 X30.1932 Y212.9320
 X31.2311 Y212.8420
 X32.3096 Y212.7760
 X33.0233 Y212.7530
 X33.7172 Y212.7510
 X34.3908 Y212.7720
 X35.0442 Y212.8150
 X35.6768 Y212.8810
 X36.2889 Y212.9670
 X36.8800 Y213.0750
 X37.4500 Y213.2060
 X37.9989 Y213.3560
 X38.5262 Y213.5280
 X39.0322 Y213.7210
 X39.5164 Y213.9350
 X39.9786 Y214.1690
 X40.4186 Y214.4240
 X40.8365 Y214.7000
 X41.2321 Y214.9960
 X41.6050 Y215.3110
 X41.9551 Y215.6470
 X42.2825 Y216.0030
 X42.5867 Y216.3790
 X42.8675 Y216.7740
 X43.1250 Y217.1890
 X43.3589 Y217.6240
 X43.5690 Y218.0760
 X43.7553 Y218.5490
 X43.9172 Y219.0400
 X44.0550 Y219.5500
 X44.1685 Y220.0790
 X44.2572 Y220.6250
 X44.3211 Y221.1920
 X44.3601 Y221.7750
 X44.3742 Y222.3760
 X44.3690 Y222.9320
 X44.3485 Y223.4560
 X44.3114 Y223.9500
 X44.2572 Y224.4190
 X44.1846 Y224.8640
 X44.0931 Y225.2860
 X43.9812 Y225.6900
 X43.8486 Y226.0780
 X43.6940 Y226.4500
 X43.5167 Y226.8100
 X43.3157 Y227.1610
 X43.0900 Y227.5040
 X42.8387 Y227.8430
 X42.5611 Y228.1790
 X42.2560 Y228.5150
 X41.9226 Y228.8540
 X41.6251 Y229.1360
 X41.3289 Y229.4010
 X41.0283 Y229.6510
 X40.7176 Y229.8890
 X40.3914 Y230.1170
 X40.0437 Y230.3380
 X39.6693 Y230.5540
 X39.2624 Y230.7690
 X38.8174 Y230.9870
 X38.3286 Y231.2100
 X37.7904 Y231.4380
 X37.1974 Y231.6780
 X36.5437 Y231.9290
 X35.8239 Y232.1970
 X35.0321 Y232.4830
 X34.1629 Y232.7900
 X33.2614 Y233.1190
 X32.4362 Y233.4430
 X31.6850 Y233.7640
 X31.0050 Y234.0860
 X30.3939 Y234.4100
 X29.8490 Y234.7390
 X29.3681 Y235.0740
 X28.9483 Y235.4180
 X28.5874 Y235.7740
 X28.2828 Y236.1430
 X28.0318 Y236.5280
 X27.8322 Y236.9290
 X27.6813 Y237.3510
 X27.5767 Y237.7960
 X27.5156 Y238.2650
 X27.4958 Y238.7600
 X27.5235 Y239.3610
 X27.6061 Y239.9250
 X27.7435 Y240.4500
 X27.9351 Y240.9390
 X28.1808 Y241.3890
 X28.4803 Y241.8000
 X28.8331 Y242.1740
 X29.2389 Y242.5080
 X29.6972 Y242.8030
 X30.2081 Y243.0600
 X30.7708 Y243.2750
 X31.3853 Y243.4510
 X32.0511 Y243.5880
 X32.7679 Y243.6830
 X33.5353 Y243.7370
 X34.3532 Y243.7510
 X34.7506 Y243.7460
 X35.1250 Y243.7360
 X35.4790 Y243.7190
 X35.8146 Y243.6960
 X36.1340 Y243.6670
 X36.4393 Y243.6290
 X36.7329 Y243.5830
 X37.0168 Y243.5310
 X37.2932 Y243.4680
 X37.5644 Y243.3970
 X37.8328 Y243.3150
 X38.1001 Y243.2250
 X38.3689 Y243.1220
 X38.6411 Y243.0100
 X38.9192 Y242.8850
 X39.2053 Y242.7490
 X39.4149 Y242.6430
 X39.5979 Y242.5500
 X39.7569 Y242.4650
 X39.8946 Y242.3820
 X40.0133 Y242.2990
 X40.1158 Y242.2100
 X40.2049 Y242.1110
 X40.2826 Y241.9990
 X40.3519 Y241.8670
 X40.4154 Y241.7130
 X40.4757 Y241.5320
 X40.5351 Y241.3190
 X40.5964 Y241.0710
 X40.6622 Y240.7820
 X40.7350 Y240.4500
 X40.8175 Y240.0680
 X41.2115 Y238.1890
 X42.0124 Y238.1500
 X42.7990 Y238.1120
 Y244.8310
 X42.1389 Y244.9830
 X41.4686 Y245.1180
 X40.7888 Y245.2430
 X40.1024 Y245.3570
 X39.4124 Y245.4600
 X38.7215 Y245.5500
 X38.0329 Y245.6290
 X37.3496 Y245.6970
 X36.6743 Y245.7530
 X36.0099 Y245.7960
 X35.3596 Y245.8260
 X34.7263 Y245.8440
 X34.1126 Y245.8490
 X33.5218 Y245.8400
 X32.9568 Y245.8180
 X32.4203 Y245.7820
 X31.9154 Y245.7320
G0 Z25.0000
 X57.1624 Y230.5040
G1 Z0.0000
 X56.6850 Y229.1740
 X56.2358 Y227.9240
 X55.8140 Y226.7490
 X55.4185 Y225.6470
 X55.0483 Y224.6190
 X54.7028 Y223.6600
 X54.3808 Y222.7670
 X54.0815 Y221.9380
 X53.8040 Y221.1710
 X53.5474 Y220.4640
 X53.3106 Y219.8150
 X53.0928 Y219.2190
 X52.8932 Y218.6760
 X52.7107 Y218.1830
 X52.5446 Y217.7390
 X52.3938 Y217.3370
 X52.2572 Y216.9810
 X52.1344 Y216.6630
 X52.0242 Y216.3830
 X51.9256 Y216.1390
 X51.8378 Y215.9280
 X51.7599 Y215.7470
 X51.6908 Y215.5940
 X51.6299 Y215.4670
 X51.5760 Y215.3640
 X51.5283 Y215.2810
 X51.4858 Y215.2170
 X51.4479 Y215.1680
 X51.4133 Y215.1330
 X51.3812 Y215.1100
 X51.3508 Y215.0960
 X51.3211 Y215.0870
 X51.2390 Y215.0710
 X51.1297 Y215.0500
 X50.9976 Y215.0260
 X50.8476 Y215.0000
 X50.6847 Y214.9720
 X50.5133 Y214.9430
 X50.3383 Y214.9140
 X50.1647 Y214.8850
 X49.9840 Y214.8540
 X49.7894 Y214.8210
 X49.5874 Y214.7860
 X49.3836 Y214.7500
 X49.1847 Y214.7140
 X48.9968 Y214.6790
 X48.8263 Y214.6470
 X48.6790 Y214.6170
 X48.0053 Y214.4900
 Y213.2330
 X58.6740
 Y213.8670
 X58.6722 Y213.9970
 X58.6672 Y214.1170
 X58.6590 Y214.2250
 X58.6483 Y214.3180
 X58.6351 Y214.3960
 X58.6200 Y214.4530
 X58.6029 Y214.4900
 X58.5844 Y214.5030
 X58.4836 Y214.5130
 X58.3119 Y214.5330
 X58.0799 Y214.5670
 X57.7979 Y214.6080
 X57.4769 Y214.6570
 X57.1272 Y214.7110
 X56.7597 Y214.7710
 X56.3849 Y214.8320
 X56.0132 Y214.8930
 X55.6554 Y214.9530
 X55.3222 Y215.0100
 X55.0239 Y215.0630
 X54.7714 Y215.1080
 X54.5751 Y215.1460
 X54.4458 Y215.1720
 X54.3940 Y215.1890
 X54.3951 Y215.2190
 X54.4125 Y215.2970
 X54.4451 Y215.4180
 X54.4924 Y215.5810
 X54.5533 Y215.7810
 X54.6275 Y216.0180
 X54.7136 Y216.2890
 X54.8112 Y216.5920
 X54.9194 Y216.9240
 X55.0374 Y217.2830
 X55.1643 Y217.6650
 X55.2994 Y218.0710
 X55.4419 Y218.4960
 X55.5910 Y218.9380
 X55.7458 Y219.3930
 X55.9057 Y219.8610
 X57.5056 Y224.4720
 X70.2815
 X71.8567 Y219.8610
 X72.0164 Y219.3920
 X72.1711 Y218.9330
 X72.3200 Y218.4900
 X72.4625 Y218.0650
 X72.5975 Y217.6600
 X72.7243 Y217.2780
 X72.8422 Y216.9190
 X72.9503 Y216.5870
 X73.0478 Y216.2850
 X73.1340 Y216.0150
 X73.2081 Y215.7780
 X73.2692 Y215.5780
 X73.3165 Y215.4170
 X73.3493 Y215.2970
 X73.3668 Y215.2190
 X73.3683 Y215.1890
 X73.3164 Y215.1720
 X73.1869 Y215.1460
 X72.9908 Y215.1080
 X72.7383 Y215.0630
 X72.4403 Y215.0100
 X72.1072 Y214.9530
 X71.7499 Y214.8930
 X71.3788 Y214.8320
 X71.0044 Y214.7710
 X70.6376 Y214.7110
 X70.2890 Y214.6570
 X69.9693 Y214.6080
 X69.6887 Y214.5670
 X69.4583 Y214.5330
 X69.2885 Y214.5130
 X69.1900 Y214.5030
 X69.1674 Y214.4900
 X69.1472 Y214.4530
 X69.1297 Y214.3960
 X69.1151 Y214.3180
 X69.1035 Y214.2250
 X69.0950 Y214.1170
 X69.0897 Y213.9970
 X69.0881 Y213.8670
 Y213.2330
 X82.8036
 Y213.8670
 X82.8062 Y213.9920
 X82.8110 Y214.0970
 X82.8131 Y214.1890
 X82.8076 Y214.2650
 X82.7900 Y214.3320
 X82.7554 Y214.3880
 X82.6992 Y214.4360
 X82.6164 Y214.4790
 X82.5024 Y214.5190
 X82.3522 Y214.5570
 X82.1614 Y214.5960
 X81.9251 Y214.6380
 X81.6385 Y214.6850
 X81.2967 Y214.7370
 X80.8951 Y214.8000
 X80.4290 Y214.8720
 X80.1157 Y214.9240
 X79.8189 Y214.9750
 X79.5453 Y215.0240
 X79.3018 Y215.0680
 X79.0954 Y215.1080
 X78.9326 Y215.1430
 X78.8204 Y215.1690
 X78.7657 Y215.1890
 X78.7535 Y215.2120
 X78.7264 Y215.2750
 X78.6851 Y215.3760
 X78.6299 Y215.5150
 X78.5610 Y215.6900
 X78.4789 Y215.9000
 X78.3839 Y216.1440
 X78.2765 Y216.4220
 X78.1571 Y216.7320
 X78.0258 Y217.0740
 X77.8835 Y217.4460
 X77.7300 Y217.8470
 X77.5660 Y218.2780
 X77.3918 Y218.7360
 X77.2079 Y219.2190
 X77.0146 Y219.7290
 X76.8122 Y220.2640
 X76.6011 Y220.8210
 X76.3818 Y221.4010
 X76.1544 Y222.0040
 X75.9197 Y222.6260
 X75.6778 Y223.2680
 X75.4292 Y223.9290
 X75.1740 Y224.6080
 X74.9129 Y225.3030
 X74.6462 Y226.0140
 X74.3743 Y226.7400
 X74.0975 Y227.4790
 X73.8163 Y228.2320
 X73.5308 Y228.9960
 X73.2417 Y229.7710
 X72.9492 Y230.5560
 X67.2468 Y245.8720
 X62.6744
 X57.1624 Y230.5040
G0 Z25.0000
 X84.5826 Y244.9960
G1 Z0.0000
 X84.5811 Y244.8690
 X84.5789 Y244.7600
 X84.5800 Y244.6670
 X84.5885 Y244.5860
 X84.6081 Y244.5180
 X84.6426 Y244.4600
 X84.6961 Y244.4100
 X84.7726 Y244.3650
 X84.8758 Y244.3260
 X85.0099 Y244.2900
 X85.1783 Y244.2540
 X85.3854 Y244.2180
 X85.6350 Y244.1790
 X85.9308 Y244.1360
 X86.2768 Y244.0880
 X86.6771 Y244.0290
 X86.9665 Y243.9870
 X87.2494 Y243.9460
 X87.5189 Y243.9060
 X87.7682 Y243.8680
 X87.9907 Y243.8350
 X88.1797 Y243.8060
 X88.3283 Y243.7820
 X88.4301 Y243.7640
 X88.7733 Y243.6890
 Y228.6820
 X88.7731 Y227.9600
 X88.7726 Y227.2470
 X88.7721 Y226.5460
 X88.7715 Y225.8570
 X88.7707 Y225.1810
 X88.7697 Y224.5190
 X88.7686 Y223.8710
 X88.7674 Y223.2390
 X88.7661 Y222.6240
 X88.7646 Y222.0260
 X88.7631 Y221.4470
 X88.7614 Y220.8880
 X88.7594 Y220.3470
 X88.7575 Y219.8290
 X88.7554 Y219.3320
 X88.7533 Y218.8580
 X88.7510 Y218.4080
 X88.7488 Y217.9850
 X88.7463 Y217.5850
 X88.7436 Y217.2120
 X88.7410 Y216.8680
 X88.7382 Y216.5510
 X88.7354 Y216.2650
 X88.7325 Y216.0080
 X88.7294 Y215.7830
 X88.7264 Y215.5900
 X88.7232 Y215.4290
 X88.7200 Y215.3030
 X88.7167 Y215.2120
 X88.7133 Y215.1570
 X88.7099 Y215.1380
 X88.6628 Y215.1330
 X88.5558 Y215.1180
 X88.3965 Y215.0940
 X88.1924 Y215.0650
 X87.9508 Y215.0280
 X87.6799 Y214.9870
 X87.3865 Y214.9430
 X87.0787 Y214.8940
 X86.7640 Y214.8460
 X86.4499 Y214.7970
 X86.1439 Y214.7500
 X85.8536 Y214.7040
 X85.5867 Y214.6610
 X85.3507 Y214.6240
 X85.1531 Y214.5920
 X85.0015 Y214.5670
 X84.8668 Y214.5390
 X84.7646 Y214.5110
 X84.6903 Y214.4720
 X84.6396 Y214.4170
 X84.6081 Y214.3360
 X84.5910 Y214.2240
 X84.5840 Y214.0690
 X84.5826 Y213.8670
 Y213.2330
 X109.9830
 Y213.7790
 X109.9840 Y213.8510
 X109.9870 Y213.9600
 X109.9920 Y214.1000
 X109.9980 Y214.2710
 X110.0060 Y214.4710
 X110.0160 Y214.6960
 X110.0270 Y214.9460
 X110.0390 Y215.2180
 X110.0530 Y215.5100
 X110.0680 Y215.8190
 X110.0840 Y216.1440
 X110.1000 Y216.4830
 X110.1170 Y216.8330
 X110.1350 Y217.1930
 X110.1540 Y217.5610
 X110.1730 Y217.9330
 X110.1920 Y218.3040
 X110.2100 Y218.6690
 X110.2280 Y219.0280
 X110.2460 Y219.3760
 X110.2620 Y219.7140
 X110.2780 Y220.0360
 X110.2930 Y220.3420
 X110.3060 Y220.6310
 X110.3190 Y220.8990
 X110.3300 Y221.1440
 X110.3390 Y221.3670
 X110.3480 Y221.5610
 X110.3540 Y221.7280
 X110.3590 Y221.8620
 X110.3620 Y221.9650
 X110.3630 Y222.0330
 Y222.5040
 X109.6010
 X109.3600 Y222.5030
 X109.1750 Y222.4970
 X109.0370 Y222.4820
 X108.9380 Y222.4560
 X108.8680 Y222.4140
 X108.8190 Y222.3540
 X108.7830 Y222.2710
 X108.7510 Y222.1600
 X108.7400 Y222.1080
 X108.7230 Y222.0260
 X108.6990 Y221.9180
 X108.6690 Y221.7860
 X108.6340 Y221.6290
 X108.5940 Y221.4510
 X108.5500 Y221.2540
 X108.5010 Y221.0380
 X108.4480 Y220.8040
 X108.3930 Y220.5560
 X108.3340 Y220.2940
 X108.2730 Y220.0220
 X108.2100 Y219.7390
 X108.1460 Y219.4470
 X108.0800 Y219.1500
 X108.0130 Y218.8460
 X107.9360 Y218.4960
 X107.8620 Y218.1670
 X107.7910 Y217.8560
 X107.7240 Y217.5650
 X107.6590 Y217.2960
 X107.5980 Y217.0470
 X107.5410 Y216.8210
 X107.4860 Y216.6140
 X107.4360 Y216.4310
 X107.3890 Y216.2680
 X107.3460 Y216.1280
 X107.3060 Y216.0110
 X107.2710 Y215.9170
 X107.2390 Y215.8440
 X107.2120 Y215.7970
 X107.1880 Y215.7740
 X107.0710 Y215.7220
 X106.9080 Y215.6750
 X106.7000 Y215.6310
 X106.4430 Y215.5890
 X106.1370 Y215.5500
 X105.7810 Y215.5150
 X105.3720 Y215.4820
 X104.9090 Y215.4530
 X104.3920 Y215.4250
 X103.8170 Y215.4010
 X103.1840 Y215.3790
 X102.4920 Y215.3580
 X101.7390 Y215.3420
 X100.9230 Y215.3260
 X100.0430 Y215.3140
 X99.0974 Y215.3030
 X93.4724 Y215.2400
 Y230.2060
 X93.4726 Y231.6350
 X93.4732 Y233.0210
 X93.4736 Y233.6960
 X93.4740 Y234.3560
 X93.4746 Y235.0010
 X93.4753 Y235.6320
 X93.4760 Y236.2440
 X93.4767 Y236.8420
 X93.4775 Y237.4190
 X93.4785 Y237.9780
 X93.4794 Y238.5150
 X93.4804 Y239.0330
 X93.4815 Y239.5280
 X93.4828 Y240.0010
 X93.4840 Y240.4490
 X93.4854 Y240.8740
 X93.4868 Y241.2710
 X93.4883 Y241.6430
 X93.4899 Y241.9860
 X93.4914 Y242.3030
 X93.4932 Y242.5890
 X93.4950 Y242.8440
 X93.4968 Y243.0690
 X93.4988 Y243.2630
 X93.5007 Y243.4220
 X93.5028 Y243.5490
 X93.5049 Y243.6390
 X93.5071 Y243.6940
 X93.5094 Y243.7130
 X93.5243 Y243.7150
 X93.5633 Y243.7190
 X93.6251 Y243.7260
 X93.7085 Y243.7370
 X93.8121 Y243.7510
 X93.9347 Y243.7670
 X94.0753 Y243.7850
 X94.2324 Y243.8040
 X94.4047 Y243.8280
 X94.5911 Y243.8510
 X94.7904 Y243.8780
 X95.0014 Y243.9060
 X95.2226 Y243.9350
 X95.4531 Y243.9650
 X95.6913 Y243.9970
 X95.9361 Y244.0290
 X96.1810 Y244.0630
 X96.4194 Y244.0940
 X96.6504 Y244.1250
 X96.8725 Y244.1540
 X97.0846 Y244.1820
 X97.2851 Y244.2080
 X97.4731 Y244.2330
 X97.6471 Y244.2560
 X97.8060 Y244.2760
 X97.9483 Y244.2940
 X98.0731 Y244.3100
 X98.1788 Y244.3240
 X98.2642 Y244.3350
 X98.3282 Y244.3420
 X98.3694 Y244.3470
 X98.3865 Y244.3490
 X98.3921 Y244.3610
 X98.3983 Y244.4000
 X98.4047 Y244.4580
 X98.4110 Y244.5370
 X98.4164 Y244.6320
 X98.4208 Y244.7390
 X98.4239 Y244.8580
 X98.4250 Y244.9830
 Y245.6170
 X84.5826
 Y244.9960
G0 Z25.0000
 X114.6800
G1 Z0.0000
 X114.6790 Y244.8690
 X114.6770 Y244.7600
 X114.6780 Y244.6670
 X114.6860 Y244.5860
 X114.7060 Y244.5180
 X114.7410 Y244.4600
 X114.7940 Y244.4100
 X114.8710 Y244.3650
 X114.9740 Y244.3260
 X115.1080 Y244.2900
 X115.2770 Y244.2540
 X115.4840 Y244.2180
 X115.7340 Y244.1790
 X116.0300 Y244.1360
 X116.3760 Y244.0880
 X116.7770 Y244.0290
 X117.0660 Y243.9870
 X117.3480 Y243.9460
 X117.6180 Y243.9060
 X117.8670 Y243.8680
 X118.0890 Y243.8350
 X118.2780 Y243.8060
 X118.4270 Y243.7820
 X118.5290 Y243.7640
 X118.8720 Y243.6890
 Y227.2470
 X118.8710 Y226.5460
 X118.8700 Y225.8570
 Y225.1810
 X118.8690 Y224.5190
 X118.8680 Y223.8710
 X118.8660 Y223.2390
 X118.8650 Y222.6240
 X118.8640 Y222.0260
 X118.8620 Y221.4470
 X118.8600 Y220.8880
 X118.8590 Y220.3470
 X118.8570 Y219.8290
 X118.8550 Y219.3320
 X118.8520 Y218.8580
 X118.8500 Y218.4080
 X118.8480 Y217.9850
 X118.8450 Y217.5850
 X118.8430 Y217.2120
 X118.8400 Y216.8680
 X118.8370 Y216.5510
 X118.8350 Y216.2650
 X118.8320 Y216.0080
 X118.8290 Y215.7830
 X118.8250 Y215.5900
 X118.8220 Y215.4290
 X118.8190 Y215.3030
 X118.8160 Y215.2120
 X118.8120 Y215.1570
 X118.8090 Y215.1380
 X118.7620 Y215.1330
 X118.6550 Y215.1180
 X118.4960 Y215.0940
 X118.2910 Y215.0650
 X118.0500 Y215.0280
 X117.7790 Y214.9870
 X117.4860 Y214.9430
 X117.1780 Y214.8940
 X116.8630 Y214.8460
 X116.5490 Y214.7970
 X116.2430 Y214.7500
 X115.9530 Y214.7040
 X115.6860 Y214.6610
 X115.4500 Y214.6240
 X115.2520 Y214.5920
 X115.1010 Y214.5670
 X114.9660 Y214.5390
 X114.8630 Y214.5110
 X114.7890 Y214.4720
 X114.7380 Y214.4170
 X114.7060 Y214.3360
 X114.6890 Y214.2240
 X114.6820 Y214.0690
 X114.6800 Y213.8670
 Y213.2330
 X140.5500
 X140.7030 Y216.3190
 X140.7180 Y216.6380
 X140.7330 Y216.9600
 X140.7650 Y217.6060
 X140.7820 Y217.9240
 X140.7990 Y218.2360
 X140.8150 Y218.5420
 X140.8320 Y218.8360
 X140.8470 Y219.1190
 X140.8620 Y219.3880
 X140.8780 Y219.6400
 X140.8900 Y219.8720
 X140.9030 Y220.0850
 X140.9140 Y220.2740
 X140.9240 Y220.4380
 X140.9320 Y220.5720
 X141.0080 Y221.7560
 X140.1940 Y221.7170
 X139.3830 Y221.6780
 X138.7220 Y218.7710
 X138.6530 Y218.4740
 X138.5860 Y218.1850
 X138.5200 Y217.9060
 X138.4570 Y217.6360
 X138.3960 Y217.3810
 X138.3380 Y217.1380
 X138.2830 Y216.9100
 X138.2310 Y216.6990
 X138.1840 Y216.5070
 X138.1410 Y216.3330
 X138.1030 Y216.1820
 X138.0700 Y216.0540
 X138.0430 Y215.9500
 X138.0210 Y215.8710
 X138.0060 Y215.8210
 X137.9980 Y215.7990
 X137.9360 Y215.7640
 X137.8240 Y215.7310
 X137.6610 Y215.7000
 X137.4440 Y215.6710
 X137.1720 Y215.6430
 X136.8430 Y215.6180
 X136.4530 Y215.5940
 X136.0030 Y215.5710
 X135.4900 Y215.5500
 X134.9110 Y215.5290
 X134.2650 Y215.5110
 X133.5500 Y215.4930
 X132.7630 Y215.4760
 X131.9040 Y215.4600
 X130.9700 Y215.4440
 X129.9590 Y215.4310
 X123.5710 Y215.3540
 Y228.6000
 X128.3290
 X128.7570 Y228.5990
 X129.1700 Y228.5970
 X129.5660 Y228.5960
 X129.9430 Y228.5940
 X130.2990 Y228.5920
 X130.6320 Y228.5890
 X130.9390 Y228.5860
 X131.2180 Y228.5830
 X131.4680 Y228.5790
 X131.6850 Y228.5760
 X131.8670 Y228.5740
 X132.0130 Y228.5710
 X132.1200 Y228.5670
 X132.1850 Y228.5640
 X132.2080 Y228.5610
 X132.2160 Y228.5140
 X132.2390 Y228.3940
 X132.2750 Y228.2110
 X132.3220 Y227.9740
 X132.3790 Y227.6880
 X132.4430 Y227.3640
 X132.5130 Y227.0100
 X132.5880 Y226.6320
 X132.6660 Y226.2540
 X132.7390 Y225.9000
 X132.8040 Y225.5750
 X132.8600 Y225.2900
 X132.9060 Y225.0510
 X132.9400 Y224.8690
 X132.9620 Y224.7500
 X132.9700 Y224.7010
 X132.9850 Y224.6960
 X133.0300 Y224.6900
 X133.1000 Y224.6830
 X133.1930 Y224.6780
 X133.3060 Y224.6720
 X133.4350 Y224.6670
 X133.5770 Y224.6640
 X133.7300 Y224.6630
 X134.4920
 Y234.5690
 X133.7300
 X133.5010 Y234.5680
 X133.3220 Y234.5610
 X133.1850 Y234.5490
 X133.0850 Y234.5250
 X133.0140 Y234.4900
 X132.9650 Y234.4400
 X132.9310 Y234.3750
 X132.9050 Y234.2900
 X132.8820 Y234.1900
 X132.8490 Y234.0370
 X132.8080 Y233.8360
 X132.7590 Y233.5990
 X132.7040 Y233.3310
 X132.6450 Y233.0400
 X132.5850 Y232.7370
 X132.5230 Y232.4310
 X132.4630 Y232.1280
 X132.4050 Y231.8360
 X132.3520 Y231.5650
 X132.3040 Y231.3240
 X132.2640 Y231.1180
 X132.2340 Y230.9600
 X132.2150 Y230.8540
 X132.2080 Y230.8110
 X132.1850 Y230.8060
 X132.1200 Y230.8010
 X132.0130 Y230.7960
 X131.8670 Y230.7920
 X131.6850 Y230.7870
 X131.4680 Y230.7830
 X131.2180 Y230.7790
 X130.9390 Y230.7750
 X130.6320 Y230.7720
 X130.2990 Y230.7680
 X129.9430 Y230.7650
 X129.5660 Y230.7640
 X129.1700 Y230.7630
 X128.7570 Y230.7610
 X128.3290 Y230.7600
 X123.5710
 Y243.4970
 X129.1970 Y243.4080
 X130.1450 Y243.3940
 X131.0140 Y243.3790
 X131.8080 Y243.3640
 X132.5290 Y243.3470
 X133.1790 Y243.3310
 X133.7620 Y243.3130
 X134.2790 Y243.2940
 X134.7340 Y243.2740
 X135.1300 Y243.2510
 X135.4690 Y243.2290
 X135.7540 Y243.2040
 X135.9870 Y243.1780
 X136.1720 Y243.1500
 X136.3110 Y243.1190
 X136.4070 Y243.0880
 X136.4620 Y243.0530
 X136.4860 Y242.9940
 X136.5200 Y242.8560
 X136.5620 Y242.6440
 X136.6110 Y242.3690
 X136.6660 Y242.0420
 X136.7260 Y241.6710
 X136.7900 Y241.2630
 X136.8560 Y240.8310
 X136.9170 Y240.3940
 X136.9770 Y239.9710
 X137.0340 Y239.5690
 X137.0870 Y239.2030
 X137.1330 Y238.8810
 X137.1730 Y238.6140
 X137.2030 Y238.4140
 X137.2230 Y238.2900
 X137.2990 Y237.8710
 X138.9380
 Y245.6170
 X114.6800
 Y244.9960
G0 Z25.0000
 X144.7790
G1 Z0.0000
 X144.7780 Y244.8690
 X144.7750 Y244.7600
 X144.7760 Y244.6670
 X144.7850 Y244.5860
 X144.8060 Y244.5180
 X144.8400 Y244.4600
 X144.8930 Y244.4100
 X144.9690 Y244.3650
 X145.0740 Y244.3260
 X145.2070 Y244.2900
 X145.3760 Y244.2540
 X145.5830 Y244.2180
 X145.8330 Y244.1790
 X146.1290 Y244.1360
 X146.4750 Y244.0880
 X146.8750 Y244.0290
 X147.1650 Y243.9870
 X147.4470 Y243.9460
 X147.7170 Y243.9060
 X147.9650 Y243.8680
 X148.1890 Y243.8350
 X148.3780 Y243.8060
 X148.5260 Y243.7820
 X148.6280 Y243.7640
 X148.9710 Y243.6890
 Y215.1630
 X148.6280 Y215.0870
 X148.5260 Y215.0690
 X148.3780 Y215.0460
 X148.1890 Y215.0170
 X147.9650 Y214.9830
 X147.7170 Y214.9460
 X147.4470 Y214.9060
 X147.1650 Y214.8640
 X146.8750 Y214.8210
 X146.4750 Y214.7640
 X146.1290 Y214.7140
 X145.8330 Y214.6710
 X145.5830 Y214.6320
 X145.3760 Y214.5960
 X145.2070 Y214.5610
 X145.0740 Y214.5250
 X144.9690 Y214.4860
 X144.8930 Y214.4420
 X144.8400 Y214.3920
 X144.8060 Y214.3330
 X144.7850 Y214.2650
 X144.7760 Y214.1850
 X144.7750 Y214.0920
 X144.7780 Y213.9820
 X144.7790 Y213.8560
 Y213.2330
 X157.7350
 Y213.8560
 X157.7360 Y213.9820
 X157.7370 Y214.0920
 X157.7360 Y214.1850
 X157.7260 Y214.2650
 X157.7070 Y214.3330
 X157.6740 Y214.3920
 X157.6220 Y214.4420
 X157.5500 Y214.4860
 X157.4530 Y214.5250
 X157.3260 Y214.5610
 X157.1680 Y214.5960
 X156.9740 Y214.6320
 X156.7390 Y214.6710
 X156.4620 Y214.7140
 X156.1390 Y214.7640
 X155.7650 Y214.8210
 X155.5010 Y214.8600
 X155.2390 Y214.8970
 X154.9850 Y214.9350
 X154.7460 Y214.9710
 X154.5290 Y215.0040
 X154.3430 Y215.0330
 X154.1940 Y215.0570
 X154.0890 Y215.0750
 X153.6710 Y215.1500
 Y228.7260
 X168.9100
 Y215.1630
 X168.5670 Y215.0870
 X168.4650 Y215.0690
 X168.3170 Y215.0460
 X168.1280 Y215.0170
 X167.9060 Y214.9830
 X167.6560 Y214.9460
 X167.3860 Y214.9060
 X167.1040 Y214.8640
 X166.8140 Y214.8210
 X166.4140 Y214.7640
 X166.0680 Y214.7140
 X165.7720 Y214.6710
 X165.5220 Y214.6320
 X165.3150 Y214.5960
 X165.1470 Y214.5610
 X165.0130 Y214.5250
 X164.9100 Y214.4860
 X164.8330 Y214.4420
 X164.7790 Y214.3920
 X164.7440 Y214.3330
 X164.7250 Y214.2650
 X164.7170 Y214.1850
 X164.7150 Y214.0920
 X164.7180 Y213.9820
 X164.7190 Y213.8560
 Y213.2330
 X177.5460
 Y213.8560
 X177.5470 Y213.9820
 X177.5490 Y214.0920
 X177.5470 Y214.1850
 X177.5390 Y214.2650
 X177.5190 Y214.3330
 X177.4860 Y214.3920
 X177.4350 Y214.4420
 X177.3610 Y214.4860
 X177.2640 Y214.5250
 X177.1380 Y214.5610
 X176.9790 Y214.5960
 X176.7850 Y214.6320
 X176.5510 Y214.6710
 X176.2740 Y214.7140
 X175.9510 Y214.7640
 X175.5780 Y214.8210
 X175.3140 Y214.8600
 X175.0510 Y214.8970
 X174.7970 Y214.9350
 X174.5580 Y214.9710
 X174.3420 Y215.0040
 X174.1560 Y215.0330
 X174.0070 Y215.0570
 X173.9010 Y215.0750
 X173.4830 Y215.1500
 Y243.7000
 X173.9010 Y243.7760
 X174.0070 Y243.7940
 X174.1560 Y243.8180
 X174.3420 Y243.8470
 X174.5580 Y243.8810
 X174.7970 Y243.9150
 X175.0510 Y243.9530
 X175.3140 Y243.9920
 X175.5780 Y244.0290
 X175.9510 Y244.0880
 X176.2740 Y244.1360
 X176.5510 Y244.1790
 X176.7850 Y244.2180
 X176.9790 Y244.2540
 X177.1380 Y244.2900
 X177.2640 Y244.3260
 X177.3610 Y244.3650
 X177.4350 Y244.4100
 X177.4860 Y244.4600
 X177.5190 Y244.5180
 X177.5390 Y244.5860
 X177.5470 Y244.6670
 X177.5490 Y244.7600
 X177.5470 Y244.8690
 X177.5460 Y244.9960
 Y245.6170
 X164.7190
 Y244.9960
 X164.7180 Y244.8690
 X164.7150 Y244.7600
 X164.7170 Y244.6670
 X164.7250 Y244.5860
 X164.7440 Y244.5180
 X164.7790 Y244.4600
 X164.8330 Y244.4100
 X164.9100 Y244.3650
 X165.0130 Y244.3260
 X165.1470 Y244.2900
 X165.3150 Y244.2540
 X165.5220 Y244.2180
 X165.7720 Y244.1790
 X166.0680 Y244.1360
 X166.4140 Y244.0880
 X166.8140 Y244.0290
 X167.1040 Y243.9870
 X167.3860 Y243.9460
 X167.6560 Y243.9060
 X167.9060 Y243.8680
 X168.1280 Y243.8350
 X168.3170 Y243.8060
 X168.4650 Y243.7820
 X168.5670 Y243.7640
 X168.9100 Y243.6890
 Y230.8860
 X153.6710
 Y243.7000
 X154.0890 Y243.7760
 X154.1940 Y243.7940
 X154.3430 Y243.8180
 X154.5290 Y243.8470
 X154.7460 Y243.8810
 X154.9850 Y243.9150
 X155.2390 Y243.9530
 X155.5010 Y243.9920
 X155.7650 Y244.0290
 X156.1390 Y244.0880
 X156.4620 Y244.1360
 X156.7390 Y244.1790
 X156.9740 Y244.2180
 X157.1680 Y244.2540
 X157.3260 Y244.2900
 X157.4530 Y244.3260
 X157.5500 Y244.3650
 X157.6220 Y244.4100
 X157.6740 Y244.4600
 X157.7070 Y244.5180
 X157.7260 Y244.5860
 X157.7360 Y244.6670
 X157.7370 Y244.7600
 X157.7360 Y244.8690
 X157.7350 Y244.9960
 Y245.6170
 X144.7790
 Y244.9960
G0 Z25.0000
M5 (stop spindle)
G04 P3 (wait for 3 seconds)
G0 Z25.0000
M2 (end program)
