;PYCAM-META-DATA: Filename: /home/zoro/x10i-interpreter2/sources/drawing1/square.svg
;PYCAM-META-DATA: Timestamp: 2014-10-10 17:51:09.042521
;PYCAM-META-DATA: Version: 0.5.1
;Estimated machine time: 4 minutes
G40 (disable tool radius compensation)
G49 (disable tool length compensation)
G80 (cancel modal motion)
G54 (select coordinate system 1)
G90 (disable incremental moves)
G21 (metric)
G61 (exact path mode)
F200.00000
S1000.00000
;PYCAM_TOOLPATH_SETTINGS: START
;[Bounds]
;maxz = 0.0
;maxx = 141.8289
;maxy = 240.0379
;minx = 33.5581
;miny = 167.8871
;minz = 0.0
;
;[Tool]
;torus_radius = 0.25
;speed = 1000.0
;shape = SphericalCutter
;tool_radius = 0.5
;feedrate = 200.0
;
;[Process]
;engrave_offset = 0.0
;step_down = 1.0
;generator = EngraveCutter
;postprocessor = SimpleCutter
;overlap_percent = 0
;milling_style = conventional
;material_allowance = 0.0
;pocketing_type = none
;path_direction = x
;
;PYCAM_TOOLPATH_SETTINGS: END
T3 M6
G0 Z0.0000
M3 (start spindle)
G04 P3 (wait for 3 seconds)
 X133.0960 Y203.9620
G1 Z0.0000
 Y173.6100
 X42.2907
 Y234.3150
 X133.0960
 Y203.9620
G0 Z0.0000
 X42.1640
G1 Z0.0000
 Y173.4830
 X133.2230
 Y234.4420
 X42.1640
 Y203.9620
G0 Z0.0000
M5 (stop spindle)
G04 P3 (wait for 3 seconds)
G0 Z0.0000
M2 (end program)
